X:0253
T:Jackson's Dream.
M:6/8
L:1/8
Q:3/8=120
I: :: ::
Z:Jack Campin * www.campin.me.uk * 2009
K:D
D|DED D2d|(AGF)    F2d|(AGF)    FED|EFE   TE2
F|DED D2d| AGF    TF2d| AGF     FED|D/E/FD D2:|
g|f2d edB| ABd     d2g| f2d     edB|ABd   Te2
g|f2d edB|(f/g/a)f g2e|(f/g/a)f g2e|fdd    d2:|
<end>
<start>
